X:2
T:Piano Postulate no. 2: ∀a(a ∈ ℕ ⇒ S(a) ∈ ℕ)
C:David Mandelberg
M:12/8
L:1/8
Q:"Allegro"
V:T clef=treble
V:B clef=bass
%%score {T B}
K:C
%%MIDI beatstring mmmmmmmmmmmm
[V:T] Z |\
[V:B] !pp! C,,,,, ^C,,,,, D,,,,, ^D,,,,, E,,,,, F,,,,, ^F,,,,, G,,,,, ^G,,,,, A,,,,, ^A,,,,, B,,,,, |\
[V:T] Z |\
[V:B] !p! C,,,, ^C,,,, D,,,, ^D,,,, E,,,, F,,,, ^F,,,, G,,,, ^G,,,, A,,,, ^A,,,, B,,,, |\
[V:T] Z |\
[V:B] !mp! C,,, ^C,,, D,,, ^D,,, E,,, F,,, ^F,,, G,,, ^G,,, A,,, ^A,,, B,,, |\
[V:T] Z |\
[V:B] !mf! C,, ^C,, D,, ^D,, E,, F,, ^F,, G,, ^G,, A,, ^A,, B,, |\
[V:T] Z |\
[V:B] C, ^C, D, ^D, E, F, ^F, G, ^G, A, ^A, B, |\
[V:T] !mf! C ^C D ^D E F ^F G ^G A ^A B |\
[V:B] Z |\
[V:T] c ^c d ^d e f ^f g ^g a ^a b |\
[V:B] Z |\
[V:T] !mp! c' ^c' d' ^d' e' f' ^f' g' ^g' a' ^a' b' |\
[V:B] Z |\
[V:T] !p! c'' ^c'' d'' ^d'' e'' f'' ^f'' g'' ^g'' a'' ^a'' b'' |\
[V:B] Z |\
[V:T] !pp! c''' ^c''' d''' ^d''' e''' f''' ^f''' g''' ^g''' a''' ^a''' b''' |\
[V:B] Z |\
[V:T] !ppp! c'''' ^c'''' d'''' ^d'''' e'''' f'''' ^f'''' g'''' z4  |]
[V:B] Z |]

